X: 129
T: No_3_Dancing_Song.krn
N: Derived from No_3_Dancing_Song.krn
%%abc-version 2.0
%%abcx-abcm2ps-target-version 5.9.1 (29 Sep 2008)
%%abc-creator hum2abc beta
%%abcx-conversion-date 2019/03/15 08:29:13
%%humdrum-veritas 75405339
%%humdrum-veritas-data 3020306064
%%linebreak <none>
%%barnumbers 0
L: 1/8
M: 4/4
%%staves {1 2}
V: 1 clef=bass
V: 2 clef=bass
K: E
[V:1] [K:clef=bass][M:4/4]C4CC(CB,) | 
[V:2] [K:clef=bass][M:4/4]G,,2G,,2G,,2G,,2 | 
[V:1] C4B,B,G,2 | 
[V:2] z8 | 
[V:1] B,4CB,G,2 | 
[V:2] z8 | 
[V:1] G,4G,G,F,2 | 
[V:2] z8 | 
[V:1] (F,/(E,3/)E,2)E,E,C,2 ||  
[V:2] z8 ||  
[V:1] [M:5/4]C,4C,C,C,2z2 ||  
[V:2] [M:5/4]z8z2 ||  
[V:1] [M:4/4]F,4F,F,E,2 | 
[V:2] [M:4/4]z8 | 
[V:1] F,4F,F,E,2 | 
[V:2] z8 | 
[V:1] (F,/(E,3/)E,2)E,E,C,2 ||  
[V:2] z8 ||  
[V:1] [M:5/4]C,4C,C,C,2z2 ||  
[V:2] [M:5/4]z8z2 ||  
[V:1] [M:4/4]E,4E,E,C,2 | 
[V:2] [M:4/4]z8 | 
[V:1] C,4C,C,C,2 ||  
[V:2] z8 ||  
[V:1] [M:2/4]!accent!C,4 | 
[V:2] [M:2/4]z4 | 
[V:1] CCC2 | 
[V:2] z4 | 
[V:1] C2C2 | 
[V:2] z4 | 
[V:1] (C2B,2) ||  
[V:2] z4 ||  
[V:1] [M:3/4]CB,G,2z2 ||  
[V:2] [M:3/4]z6 ||  
[V:1] [M:4/4]B,4CB,G,2 | 
[V:2] [M:4/4]z8 | 
[V:1] G,4G,G,F,2 | 
[V:2] z8 | 
[V:1] (F,/(E,3/)E,2)E,E,C,2 ||  
[V:2] z8 ||  
[V:1] [M:5/4]C,4C,C,C,2z2 ||  
[V:2] [M:5/4]z8z2 ||  
[V:1] [M:4/4]F,4F,F,E,2 | 
[V:2] [M:4/4]z8 | 
[V:1] F,4F,F,E,2 | 
[V:2] z8 | 
[V:1] (F,/(E,3/)E,2)E,E,C,2 ||  
[V:2] z8 ||  
[V:1] [M:5/4]C,4C,C,C,2z2 ||  
[V:2] [M:5/4]z8z2 ||  
[V:1] [M:4/4]E,4E,E,C,2 | 
[V:2] [M:4/4]z8 | 
[V:1] C,4C,C,C,2 | 
[V:2] z8 | 
[V:1] C,8 |]  
[V:2] z8 |]  



